X:1770
T:Yggnorks förbannelse
R:?
S:Efter Barfota
O:Tollarp, Skåne
H:Skrevs av två ungdomar i Tollarp 2009. Tonarten är egentligen G harmonisk moll.
Z:ABC-transkribering av Tobias Holm
M:2/4
L:1/8
K:Gm
|G3/2^F/2 GD | G3/2B/2 d2 | c3/2B/2 cd | A2A2 | A3/2B/2 cB | d3/2c/2 BA | ^F3/2G/2 A^F |1 D2D2:|2 G2G2|
|:A3/2B/2 cB | d3/2c/2 BA | A3/2B/2 cB | G2D2 | A3/2B/2 cB | d3/2c/2 BA | ^F3/2G/2 A^F | G2G2:|
|G3/2^F/2 GA | B3/2A/2 Bc | d3/2c/2 BA | G2G2 |]
(:musicend:)
(:music:)
